storage/app/icons/phosphoricons/bold/archive-bold.svg

<svg xmlns="http://www.w3.org/2000/svg" fill="currentColor" viewBox="0 0 256 256"><path d="M224 44H32a20 20 0 0 0-20 20v24a20 20 0 0 0 16 19.6V192a20 20 0 0 0 20 20h160a20 20 0 0 0 20-20v-84.4A20 20 0 0 0 244 88V64a20 20 0 0 0-20-20M36 68h184v16H36Zm16 120v-80h152v80Zm112-52a12 12 0 0 1-12 12h-48a12 12 0 0 1 0-24h48a12 12 0 0 1 12 12"/></svg>

<svg xmlns="http://www.w3.org/2000/svg" viewBox="0 0 256 256" fill="currentColor"><path d="M224,44H32A20,20,0,0,0,12,64V88a20,20,0,0,0,16,19.6V192a20,20,0,0,0,20,20H208a20,20,0,0,0,20-20V107.6A20,20,0,0,0,244,88V64A20,20,0,0,0,224,44ZM36,68H220V84H36ZM52,188V108H204v80Zm112-52a12,12,0,0,1-12,12H104a12,12,0,0,1,0-24h48A12,12,0,0,1,164,136Z"/></svg>
